communes/615.svg

<?xml version="1.0" encoding="UTF-8" standalone="no"?>
<svg
   xmlns:dc="http://purl.org/dc/elements/1.1/"
   xmlns:cc="http://creativecommons.org/ns#"
   xmlns:rdf="http://www.w3.org/1999/02/22-rdf-syntax-ns#"
   xmlns:svg="http://www.w3.org/2000/svg"
   xmlns="http://www.w3.org/2000/svg"
   xmlns:xlink="http://www.w3.org/1999/xlink"
   xmlns:sodipodi="http://sodipodi.sourceforge.net/DTD/sodipodi-0.dtd"
   xmlns:inkscape="http://www.inkscape.org/namespaces/inkscape"
   height="763"
   width="603"
   version="1.0"
   id="svg20"
   sodipodi:version="0.32"
   inkscape:version="0.46"
   sodipodi:docname="Mirchel-coat of arms.svg"
   sodipodi:docbase="C:\Users\Camilo\Documents\Escudos de Suiza"
   inkscape:output_extension="org.inkscape.output.svg.inkscape">
  <metadata
     id="metadata31">
    <rdf:RDF>
      <cc:Work
         rdf:about="">
        <dc:format>image/svg+xml</dc:format>
        <dc:type
           rdf:resource="http://purl.org/dc/dcmitype/StillImage" />
        <dc:date>06-AUG-2009</dc:date>
        <dc:creator>
          <cc:Agent>
            <dc:title>Juan G (aliman5040)</dc:title>
          </cc:Agent>
        </dc:creator>
        <cc:license
           rdf:resource="http://creativecommons.org/licenses/GPL/2.0/" />
        <dc:coverage />
        <dc:description />
        <dc:subject>
          <rdf:Bag />
        </dc:subject>
        <dc:language />
        <dc:title>Wappen Gemeinde Mirchel</dc:title>
      </cc:Work>
      <cc:License
         rdf:about="http://creativecommons.org/licenses/GPL/2.0/">
        <cc:permits
           rdf:resource="http://web.resource.org/cc/Reproduction" />
        <cc:permits
           rdf:resource="http://web.resource.org/cc/Distribution" />
        <cc:requires
           rdf:resource="http://web.resource.org/cc/Notice" />
        <cc:permits
           rdf:resource="http://web.resource.org/cc/DerivativeWorks" />
        <cc:requires
           rdf:resource="http://web.resource.org/cc/ShareAlike" />
        <cc:requires
           rdf:resource="http://web.resource.org/cc/SourceCode" />
      </cc:License>
    </rdf:RDF>
  </metadata>
  <defs
     id="defs29">
    <inkscape:perspective
       sodipodi:type="inkscape:persp3d"
       inkscape:vp_x="0 : 381.5 : 1"
       inkscape:vp_y="0 : 1000 : 0"
       inkscape:vp_z="603 : 381.5 : 1"
       inkscape:persp3d-origin="301.5 : 254.33333 : 1"
       id="perspective5149" />
    <linearGradient
       id="linearGradient2893">
      <stop
         style="stop-color:#ffffff;stop-opacity:0.3137255;"
         offset="0"
         id="stop2895" />
      <stop
         id="stop2897"
         offset="0.19"
         style="stop-color:#ffffff;stop-opacity:0.25098041;" />
      <stop
         style="stop-color:#6b6b6b;stop-opacity:0.1254902;"
         offset="0.60000002"
         id="stop2901" />
      <stop
         style="stop-color:#000000;stop-opacity:0.1254902;"
         offset="1"
         id="stop2899" />
    </linearGradient>
    <radialGradient
       inkscape:collect="always"
       xlink:href="#linearGradient2893"
       id="radialGradient3236"
       gradientUnits="userSpaceOnUse"
       gradientTransform="matrix(1.215027,1.531577e-24,1.464684e-23,1.266667,-839.1924,-490.4894)"
       cx="858.04236"
       cy="579.93323"
       fx="858.04236"
       fy="579.93323"
       r="300" />
    <inkscape:perspective
       id="perspective5197"
       inkscape:persp3d-origin="372.04724 : 350.78739 : 1"
       inkscape:vp_z="744.09448 : 526.18109 : 1"
       inkscape:vp_y="0 : 1000 : 0"
       inkscape:vp_x="0 : 526.18109 : 1"
       sodipodi:type="inkscape:persp3d" />
    <inkscape:perspective
       id="perspective2458"
       inkscape:persp3d-origin="372.04724 : 350.78739 : 1"
       inkscape:vp_z="744.09448 : 526.18109 : 1"
       inkscape:vp_y="0 : 1000 : 0"
       inkscape:vp_x="0 : 526.18109 : 1"
       sodipodi:type="inkscape:persp3d" />
  </defs>
  <sodipodi:namedview
     inkscape:window-height="720"
     inkscape:window-width="1280"
     inkscape:pageshadow="2"
     inkscape:pageopacity="0.0"
     guidetolerance="10.0"
     gridtolerance="10.0"
     objecttolerance="10.0"
     borderopacity="1.0"
     bordercolor="#666666"
     pagecolor="#ffffff"
     id="base"
     inkscape:zoom="0.3527061"
     inkscape:cx="363.44759"
     inkscape:cy="366.19619"
     inkscape:window-x="-8"
     inkscape:window-y="-8"
     inkscape:current-layer="layer2"
     showgrid="true"
     showguides="true"
     inkscape:guide-bbox="true">
    <inkscape:grid
       type="xygrid"
       id="grid5151" />
  </sodipodi:namedview>
  <g
     inkscape:groupmode="layer"
     id="layer1"
     inkscape:label="Fond écu"
     style="display:inline"
     sodipodi:insensitive="true">
    <path
       id="path1899"
       d="M 1.5,1.49998 L 1.5,460.3679 C 1.5,626.6785 135.81456,761.5 301.49999,761.5 C 467.18543,761.5 601.5,626.6785 601.5,460.3679 L 601.5,1.49998 L 1.5,1.49998 z"
       style="fill:#5ab532;fill-opacity:1" />
  </g>
  <g
     inkscape:groupmode="layer"
     id="layer2"
     inkscape:label="Meubles"
     style="display:inline"
     sodipodi:insensitive="true">
    <path
       style="fill:#fcef3c;fill-opacity:1;fill-rule:evenodd;stroke:#000000;stroke-width:3;stroke-miterlimit:4;stroke-dasharray:none;stroke-opacity:1;display:inline"
       d="M 1.5,1.5 L 1.5,460.375 C 1.5,626.68559 135.8146,761.49995 301.5,761.49995 C 302.23074,761.49995 302.95799,761.47395 303.6875,761.46875 L 303.6875,1.5 L 1.5,1.5 z"
       id="rect5459" />
    <g
       id="g5773">
      <path
         sodipodi:nodetypes="cccccccc"
         id="path3258"
         d="M 345.99828,678.75536 C 382.48363,676.55964 488.26593,650.58952 440.45101,626.58388 C 480.35622,631.57682 526.08323,602.44107 482.22174,586.61397 C 558.81435,588.05276 565.76321,559.02979 523.99248,532.5578 C 586.64857,506.11893 503.10711,438.02516 482.22174,497.06771 C 453.78832,459.52413 441.77677,488.83132 433.82605,532.5578 C 408.99573,508.58344 401.39262,540.06011 398.68028,583.65326 C 368.85948,554.39662 360.78495,631.69094 345.99828,678.75536 z"
         style="fill:#fcef3c;fill-opacity:1;fill-rule:evenodd;stroke:#000000;stroke-width:4.17707348;stroke-miterlimit:4;stroke-dasharray:none;stroke-opacity:1" />
      <path
         style="fill:#fcef3c;fill-opacity:1;fill-rule:evenodd;stroke:#000000;stroke-width:4.17707348;stroke-miterlimit:4;stroke-dasharray:none;stroke-opacity:1"
         d="M 345.99828,494.96414 C 382.48363,492.76842 488.26593,466.7983 440.45101,442.79266 C 480.35622,447.7856 526.08323,418.64984 482.22174,402.82275 C 558.81435,404.26154 565.76321,375.23856 523.99248,348.76657 C 586.64857,322.3277 503.10711,254.23393 482.22174,313.27649 C 453.78832,275.73291 441.77677,305.04009 433.82605,348.76657 C 408.99573,324.79222 401.39262,356.26889 398.68028,399.86204 C 368.85948,370.6054 360.78495,447.89972 345.99828,494.96414 z"
         id="path3260"
         sodipodi:nodetypes="cccccccc" />
      <path
         sodipodi:nodetypes="cccccccc"
         id="path3262"
         d="M 345.99828,319.52706 C 382.48363,317.33134 488.26593,291.36122 440.45101,267.35558 C 480.35622,272.34852 526.08323,243.21276 482.22174,227.38567 C 558.81435,228.82446 565.76321,199.80149 523.99248,173.32949 C 586.64857,146.89062 503.10711,78.796852 482.22174,137.83941 C 453.78832,100.29583 441.77677,129.60301 433.82605,173.32949 C 408.99573,149.35514 401.39262,180.83181 398.68028,224.42496 C 368.85948,195.16832 360.78495,272.46264 345.99828,319.52706 z"
         style="fill:#fcef3c;fill-opacity:1;fill-rule:evenodd;stroke:#000000;stroke-width:4.17707348;stroke-miterlimit:4;stroke-dasharray:none;stroke-opacity:1" />
      <path
         style="fill:#5ab532;fill-opacity:1;fill-rule:evenodd;stroke:#000000;stroke-width:4.17707348;stroke-miterlimit:4;stroke-dasharray:none;stroke-opacity:1"
         d="M 257.00168,678.75536 C 220.51632,676.55964 114.73403,650.58952 162.54894,626.58388 C 122.64373,631.57682 76.916727,602.44107 120.77821,586.61397 C 44.185599,588.05276 37.236745,559.02979 79.007478,532.5578 C 16.351378,506.11893 99.892844,438.02516 120.77821,497.06771 C 149.21163,459.52413 161.22318,488.83132 169.17391,532.5578 C 194.00423,508.58344 201.60734,540.06011 204.31968,583.65326 C 234.14047,554.39662 242.215,631.69094 257.00168,678.75536 z"
         id="path3264"
         sodipodi:nodetypes="cccccccc" />
      <path
         sodipodi:nodetypes="cccccccc"
         id="path3266"
         d="M 257.00168,494.96414 C 220.51632,492.76842 114.73403,466.7983 162.54894,442.79266 C 122.64373,447.7856 76.916727,418.64984 120.77821,402.82275 C 44.185599,404.26154 37.236745,375.23856 79.007478,348.76657 C 16.351378,322.3277 99.892844,254.23393 120.77821,313.27649 C 149.21163,275.73291 161.22318,305.04009 169.17391,348.76657 C 194.00423,324.79222 201.60734,356.26889 204.31968,399.86204 C 234.14047,370.6054 242.215,447.89972 257.00168,494.96414 z"
         style="fill:#5ab532;fill-opacity:1;fill-rule:evenodd;stroke:#000000;stroke-width:4.17707348;stroke-miterlimit:4;stroke-dasharray:none;stroke-opacity:1" />
      <path
         style="fill:#5ab532;fill-opacity:1;fill-rule:evenodd;stroke:#000000;stroke-width:4.17707348;stroke-miterlimit:4;stroke-dasharray:none;stroke-opacity:1"
         d="M 257.00168,319.52706 C 220.51632,317.33134 114.73403,291.36122 162.54894,267.35558 C 122.64373,272.34852 76.916727,243.21276 120.77821,227.38567 C 44.185599,228.82446 37.236745,199.80149 79.007478,173.32949 C 16.351378,146.89062 99.892844,78.796852 120.77821,137.83941 C 149.21163,100.29583 161.22318,129.60301 169.17391,173.32949 C 194.00423,149.35514 201.60734,180.83181 204.31968,224.42496 C 234.14047,195.16832 242.215,272.46264 257.00168,319.52706 z"
         id="path3268"
         sodipodi:nodetypes="cccccccc" />
      <path
         sodipodi:nodetypes="ccccccccccccccccccccccccccccccccccc"
         id="path2484"
         d="M 337.98072,741.41146 L 336.02418,707.99488 L 390.32613,636.98463 L 482.22174,540.91194 L 390.32613,636.98463 L 336.02418,671.95133 L 327.67003,536.73487 L 373.61784,474.07877 L 473.8676,363.43938 L 373.61784,474.07877 L 327.67003,499.14121 L 323.49296,361.29779 L 369.44076,294.46462 L 467.62793,196.35645 L 369.44076,294.46462 L 319.31588,329.99568 L 319.31588,281.9334 L 281.72222,281.9334 L 281.72222,329.99568 L 210.71198,270.83065 L 135.52466,185.86071 L 210.71198,270.83065 L 281.72222,361.29779 L 277.54515,499.14121 L 231.59734,478.25584 L 139.70173,378.00608 L 231.59734,478.25584 L 277.54515,536.73487 L 269.191,670.40122 L 223.2432,649.51585 L 148.05588,565.97438 L 223.2432,649.51585 L 269.191,707.99488 L 266.56404,741.41146 L 337.98072,741.41146 z"
         style="fill:#5ab532;fill-opacity:1;fill-rule:evenodd;stroke:#000000;stroke-width:4.17707348;stroke-miterlimit:4;stroke-dasharray:none;stroke-opacity:1" />
      <path
         id="path5755"
         d="M 210.71875,270.84375 L 281.71875,361.3125 L 277.53125,499.15625 L 231.59375,478.25 L 277.53125,536.75 L 269.1875,670.40625 L 223.25,649.53125 L 269.1875,708 L 266.5625,741.40625 L 303.6875,741.40625 L 303.6875,281.9375 L 281.71875,281.9375 L 281.71875,330 L 210.71875,270.84375 z"
         style="fill:#fcef3c;fill-opacity:1;fill-rule:evenodd;stroke:#000000;stroke-width:3;stroke-miterlimit:4;stroke-dasharray:none;stroke-opacity:1;display:inline" />
      <path
         sodipodi:nodetypes="cccccccs"
         id="path3270"
         d="M 301.26086,291.55558 C 263.93115,291.62621 231.59734,204.67258 273.36808,203.99978 C 238.61917,171.74931 225.33863,143.79533 258.71912,142.71865 C 220.58825,95.629288 231.59734,73.079734 268.1342,88.166362 C 252.48271,31.309001 356.90954,31.309001 330.2617,88.689749 C 377.79491,73.079734 388.38153,102.62472 343.3516,143.76542 C 377.79491,156.6212 362.9041,169.57322 336.02418,203.99978 C 377.79491,205.5425 336.04535,291.48883 301.26086,291.55558 z"
         style="fill:#5ab532;fill-opacity:1;fill-rule:evenodd;stroke:#000000;stroke-width:4.17707348;stroke-miterlimit:4;stroke-dasharray:none;stroke-opacity:1" />
      <path
         id="path5768"
         d="M 303.3125,45.59375 C 282.49321,45.528327 260.29926,59.727571 268.125,88.15625 C 231.58814,73.069622 220.58788,95.629395 258.71875,142.71875 C 225.33826,143.79543 238.6261,171.74952 273.375,204 C 231.60426,204.6728 263.92029,291.63314 301.25,291.5625 C 302.05495,291.56096 302.87621,291.49766 303.6875,291.40625 L 303.6875,45.59375 C 303.56371,45.592349 303.43639,45.594139 303.3125,45.59375 z"
         style="fill:#fcef3c;fill-opacity:1;fill-rule:evenodd;stroke:#000000;stroke-width:3;stroke-miterlimit:4;stroke-dasharray:none;stroke-opacity:1;display:inline" />
    </g>
  </g>
  <g
     inkscape:groupmode="layer"
     id="layer3"
     inkscape:label="Reflet final"
     style="display:inline"
     sodipodi:insensitive="true">
    <path
       style="fill:url(#radialGradient3236);fill-opacity:1"
       d="M 1.5,1.5 L 1.5,460.3679 C 1.5,626.67854 135.81454,761.5 301.49993,761.5 C 467.1854,761.5 601.5,626.67854 601.5,460.3679 L 601.5,1.5 L 1.5,1.5 z "
       id="path2346" />
  </g>
  <g
     inkscape:groupmode="layer"
     id="layer4"
     inkscape:label="Contour final"
     style="display:inline"
     sodipodi:insensitive="true">
    <path
       style="fill:none;fill-opacity:1;stroke:#000000;stroke-width:3;stroke-miterlimit:4;stroke-dasharray:none;stroke-opacity:1"
       d="M 1.5,1.5 L 1.5,460.36794 C 1.5,626.67854 135.81454,761.5 301.49993,761.5 C 467.1854,761.5 601.5,626.67854 601.5,460.36794 L 601.5,1.5 L 1.5,1.5 z "
       id="path3239" />
  </g>
</svg>

<?xml version="1.0" encoding="UTF-8"?>
<svg version="1.0" viewBox="0 0 603 763" xmlns="http://www.w3.org/2000/svg" xmlns:cc="http://creativecommons.org/ns#" xmlns:dc="http://purl.org/dc/elements/1.1/" xmlns:rdf="http://www.w3.org/1999/02/22-rdf-syntax-ns#" xmlns:xlink="http://www.w3.org/1999/xlink">
<metadata>
<rdf:RDF>
<cc:Work rdf:about="">
<dc:format>image/svg+xml</dc:format>
<dc:type rdf:resource="http://purl.org/dc/dcmitype/StillImage"/>
<dc:date>06-AUG-2009</dc:date>
<dc:creator>
<cc:Agent>
<dc:title>Juan G (aliman5040)</dc:title>
</cc:Agent>
</dc:creator>
<cc:license rdf:resource="http://creativecommons.org/licenses/GPL/2.0/"/>
<dc:coverage/>
<dc:description/>
<dc:subject>
<rdf:Bag/>
</dc:subject>
<dc:language/>
<dc:title>Wappen Gemeinde Mirchel</dc:title>
</cc:Work>
<cc:License rdf:about="http://creativecommons.org/licenses/GPL/2.0/">
<cc:permits rdf:resource="http://web.resource.org/cc/Reproduction"/>
<cc:permits rdf:resource="http://web.resource.org/cc/Distribution"/>
<cc:requires rdf:resource="http://web.resource.org/cc/Notice"/>
<cc:permits rdf:resource="http://web.resource.org/cc/DerivativeWorks"/>
<cc:requires rdf:resource="http://web.resource.org/cc/ShareAlike"/>
<cc:requires rdf:resource="http://web.resource.org/cc/SourceCode"/>
</cc:License>
</rdf:RDF>
</metadata>
<defs>
<radialGradient id="a" cx="858.04" cy="579.93" r="300" gradientTransform="matrix(1.215 1.5316e-24 1.4647e-23 1.2667 -839.19 -490.49)" gradientUnits="userSpaceOnUse">
<stop stop-color="#fff" stop-opacity=".31373" offset="0"/>
<stop stop-color="#fff" stop-opacity=".25098" offset=".19"/>
<stop stop-color="#6b6b6b" stop-opacity=".12549" offset=".6"/>
<stop stop-opacity=".12549" offset="1"/>
</radialGradient>
</defs>
<g>
<path d="m1.5 1.5v458.87c0 166.31 134.31 301.13 300 301.13 165.69 0 300-134.82 300-301.13v-458.87h-600z" fill="#5ab532"/>
<path d="m1.5 1.5v458.88c0 166.31 134.31 301.12 300 301.12 0.73074 0 1.458-0.026 2.1875-0.0312v-759.97h-302.19z" fill="#fcef3c" fill-rule="evenodd" stroke="#000" stroke-width="3"/>
<g fill-rule="evenodd" stroke="#000">
<path d="m346 678.76c36.485-2.1957 142.27-28.166 94.453-52.171 39.905 4.9929 85.632-24.143 41.771-39.97 76.593 1.4388 83.541-27.584 41.771-54.056 62.656-26.439-20.885-94.533-41.771-35.49-28.433-37.544-40.445-8.2364-48.396 35.49-24.83-23.974-32.433 7.5023-35.146 51.095-29.821-29.257-37.895 48.038-52.682 95.102z" fill="#fcef3c" stroke-width="4.1771"/>
<path d="m346 494.96c36.485-2.1957 142.27-28.166 94.453-52.171 39.905 4.9929 85.632-24.143 41.771-39.97 76.593 1.4388 83.541-27.584 41.771-54.056 62.656-26.439-20.885-94.533-41.771-35.49-28.433-37.544-40.445-8.2364-48.396 35.49-24.83-23.974-32.433 7.5023-35.146 51.095-29.821-29.257-37.895 48.038-52.682 95.102z" fill="#fcef3c" stroke-width="4.1771"/>
<path d="m346 319.53c36.485-2.1957 142.27-28.166 94.453-52.171 39.905 4.9929 85.632-24.143 41.771-39.97 76.593 1.4388 83.541-27.584 41.771-54.056 62.656-26.439-20.885-94.533-41.771-35.49-28.433-37.544-40.445-8.2364-48.396 35.49-24.83-23.974-32.433 7.5023-35.146 51.095-29.821-29.257-37.895 48.038-52.682 95.102z" fill="#fcef3c" stroke-width="4.1771"/>
<path d="m257 678.76c-36.485-2.1957-142.27-28.166-94.453-52.171-39.905 4.9929-85.632-24.143-41.771-39.97-76.593 1.4388-83.541-27.584-41.771-54.056-62.656-26.439 20.885-94.533 41.771-35.49 28.433-37.544 40.445-8.2364 48.396 35.49 24.83-23.974 32.433 7.5023 35.146 51.095 29.821-29.257 37.895 48.038 52.682 95.102z" fill="#5ab532" stroke-width="4.1771"/>
<path d="m257 494.96c-36.485-2.1957-142.27-28.166-94.453-52.171-39.905 4.9929-85.632-24.143-41.771-39.97-76.593 1.4388-83.541-27.584-41.771-54.056-62.656-26.439 20.885-94.533 41.771-35.49 28.433-37.544 40.445-8.2364 48.396 35.49 24.83-23.974 32.433 7.5023 35.146 51.095 29.821-29.257 37.895 48.038 52.682 95.102z" fill="#5ab532" stroke-width="4.1771"/>
<path d="m257 319.53c-36.485-2.1957-142.27-28.166-94.453-52.171-39.905 4.9929-85.632-24.143-41.771-39.97-76.593 1.4388-83.541-27.584-41.771-54.056-62.656-26.439 20.885-94.533 41.771-35.49 28.433-37.544 40.445-8.2364 48.396 35.49 24.83-23.974 32.433 7.5023 35.146 51.095 29.821-29.257 37.895 48.038 52.682 95.102z" fill="#5ab532" stroke-width="4.1771"/>
<path d="m337.98 741.41-1.9565-33.417 54.302-71.01 91.896-96.073-91.896 96.073-54.302 34.967-8.3542-135.22 45.948-62.656 100.25-110.64-100.25 110.64-45.948 25.062-4.1771-137.84 45.948-66.833 98.187-98.108-98.187 98.108-50.125 35.531v-48.062h-37.594v48.062l-71.01-59.165-75.187-84.97 75.187 84.97 71.01 90.467-4.1771 137.84-45.948-20.885-91.896-100.25 91.896 100.25 45.948 58.479-8.3542 133.67-45.948-20.885-75.187-83.541 75.187 83.541 45.948 58.479-2.627 33.417h71.417z" fill="#5ab532" stroke-width="4.1771"/>
<path d="m210.72 270.84 71 90.469-4.1875 137.84-45.938-20.906 45.938 58.5-8.3438 133.66-45.938-20.875 45.938 58.469-2.625 33.406h37.125v-459.47h-21.969v48.062l-71-59.156z" fill="#fcef3c" stroke-width="3"/>
<path d="m301.26 291.56c-37.33 0.07063-69.664-86.883-27.893-87.556-34.749-32.25-48.029-60.204-14.649-61.281-38.131-47.089-27.122-69.639 9.4151-54.552-15.651-56.857 88.775-56.857 62.128 0.52339 47.533-15.61 58.12 13.935 13.09 55.076 34.443 12.856 19.552 25.808-7.3274 60.234 41.771 1.5427 0.02117 87.489-34.763 87.556z" fill="#5ab532" stroke-width="4.1771"/>
<path d="m303.31 45.594c-20.819-0.065423-43.013 14.134-35.188 42.562-36.537-15.087-47.537 7.4731-9.4062 54.562-33.38 1.0767-20.093 29.031 14.656 61.281-41.771 0.6728-9.4547 87.633 27.875 87.562 0.80495-0.00154 1.6262-0.06484 2.4375-0.15625v-245.81c-0.12379-0.001401-0.25111 3.89e-4 -0.375 0z" fill="#fcef3c" stroke-width="3"/>
</g>
<path d="m1.5 1.5v458.87c0 166.31 134.31 301.13 300 301.13 165.69 0 300-134.82 300-301.13v-458.87h-600z" fill="url(#a)"/>
<path d="m1.5 1.5v458.87c0 166.31 134.31 301.13 300 301.13 165.69 0 300-134.82 300-301.13v-458.87h-600z" fill="none" stroke="#000" stroke-width="3"/>
</g>
</svg>
